img/03_144.svg

<svg width="144" height="144" viewBox="0 0 144 144" fill="none" xmlns="http://www.w3.org/2000/svg">
<path d="M51.2417 51.2422C44.8827 51.2422 39.7097 56.4162 39.7097 62.7742V70.1192C37.0307 71.0732 35.0967 73.6092 35.0967 76.6122C35.0967 80.4282 38.2007 83.5332 42.0167 83.5332H45.1297C45.7867 85.3852 46.8217 87.0542 48.1507 88.4492C40.7237 89.8962 35.0957 96.4462 35.0957 104.291V113.517C35.0957 114.789 36.1287 115.823 37.4027 115.823H78.9197C80.1907 115.823 81.2257 114.79 81.2257 113.517V104.291C81.2257 96.4462 75.5977 89.8962 68.1717 88.4492C69.4997 87.0532 70.5347 85.3852 71.1927 83.5332H74.3057C78.1197 83.5332 81.2247 80.4292 81.2247 76.6122C81.2247 73.6092 79.2897 71.0732 76.6127 70.1192V62.7742C76.6127 56.4162 71.4387 51.2422 65.0797 51.2422H51.2417V51.2422ZM44.3217 78.9202H42.0157C40.7447 78.9202 39.7087 77.8842 39.7087 76.6122C39.7087 75.3412 40.7437 74.3062 42.0157 74.3062H44.3217V78.9202ZM76.6127 104.291V111.21H39.7097V104.291C39.7097 97.9322 44.8827 92.7582 51.2417 92.7582H65.0797C71.4387 92.7582 76.6127 97.9322 76.6127 104.291ZM48.9357 78.9202V74.3072H51.2427C54.9607 74.3072 60.9527 72.2862 64.4977 68.8312C65.2567 70.0562 66.2387 71.1282 67.3877 71.9902V78.9202C67.3877 84.0082 63.2497 88.1452 58.1617 88.1452C53.0737 88.1452 48.9357 84.0082 48.9357 78.9202ZM74.3067 74.3072C75.5777 74.3072 76.6137 75.3422 76.6137 76.6132C76.6137 77.8842 75.5787 78.9212 74.3067 78.9212H71.9997V74.3082H74.3067V74.3072ZM71.9997 62.7742V69.2972C69.3137 68.3462 67.3867 65.7802 67.3867 62.7742C67.3867 61.5012 66.3537 60.4662 65.0797 60.4662C63.8057 60.4662 62.7727 61.5002 62.7727 62.7742C62.7727 65.9822 55.7937 69.6932 51.2417 69.6932H44.3217V62.7742C44.3217 58.9592 47.4267 55.8552 51.2417 55.8552H65.0797C68.8957 55.8552 71.9997 58.9592 71.9997 62.7742Z" fill="#11305D"/>
<path d="M97.3708 0.5H74.3068C64.1328 0.5 55.8558 8.778 55.8558 18.952V32.791H28.1778C24.3628 32.791 21.2578 35.895 21.2578 39.71V136.58C21.2578 140.395 24.3618 143.5 28.1778 143.5H88.1448C91.9598 143.5 95.0648 140.396 95.0648 136.58V39.71C95.0648 35.895 91.9608 32.791 88.1448 32.791H60.4678V18.952C60.4678 11.318 66.6738 5.112 74.3068 5.112H78.9198C90.3628 5.112 99.6778 14.425 99.6778 25.871V62.774C99.6778 69.132 104.85 74.306 111.209 74.306C117.568 74.306 122.742 69.132 122.742 62.774V25.871C122.742 11.883 111.359 0.5 97.3708 0.5ZM88.1448 37.404C89.4158 37.404 90.4518 38.438 90.4518 39.71V136.58C90.4518 137.851 89.4168 138.888 88.1448 138.888H28.1778C26.9068 138.888 25.8708 137.852 25.8708 136.58V39.71C25.8708 38.439 26.9058 37.404 28.1778 37.404H55.8558V42.133H48.5698C47.3138 42.133 46.2968 43.151 46.2968 44.406C46.2968 45.661 47.3148 46.678 48.5698 46.678H67.7538C69.0088 46.678 70.0258 45.66 70.0258 44.406C70.0258 43.15 69.0078 42.133 67.7538 42.133H60.4688V37.404H88.1448ZM118.129 62.774C118.129 66.589 115.024 69.693 111.209 69.693C107.394 69.693 104.289 66.589 104.289 62.774V25.871C104.289 17.301 100.019 9.707 93.4908 5.112H97.3708C108.814 5.112 118.129 14.425 118.129 25.871V62.774V62.774Z" fill="#11305D"/>
<path d="M55.8887 120.436H37.3697C36.1137 120.436 35.0967 121.454 35.0967 122.709C35.0967 123.964 36.1147 124.981 37.3697 124.981H55.8887C57.1437 124.981 58.1607 123.963 58.1607 122.709C58.1607 121.453 57.1437 120.436 55.8887 120.436Z" fill="#11305D"/>
<path d="M55.8887 129.695H37.3697C36.1137 129.695 35.0967 130.713 35.0967 131.968C35.0967 133.223 36.1147 134.24 37.3697 134.24H55.8887C57.1437 134.24 58.1607 133.222 58.1607 131.968C58.1607 130.713 57.1437 129.695 55.8887 129.695Z" fill="#11305D"/>
<path d="M78.9524 129.695H65.0464C63.7904 129.695 62.7734 130.713 62.7734 131.968C62.7734 133.223 63.7914 134.24 65.0464 134.24H78.9524C80.2074 134.24 81.2244 133.222 81.2244 131.968C81.2254 130.713 80.2074 129.695 78.9524 129.695Z" fill="#11305D"/>
</svg>

<?xml version="1.0" encoding="utf-8"?>
<!-- Generator: Adobe Illustrator 15.0.2, SVG Export Plug-In . SVG Version: 6.00 Build 0)  -->
<!DOCTYPE svg PUBLIC "-//W3C//DTD SVG 1.1//EN" "http://www.w3.org/Graphics/SVG/1.1/DTD/svg11.dtd">
<svg version="1.1" id="Layer_1" xmlns="http://www.w3.org/2000/svg" xmlns:xlink="http://www.w3.org/1999/xlink" x="0px" y="0px"
	 width="144px" height="144px" viewBox="0 0 144 144" enable-background="new 0 0 144 144" xml:space="preserve">
<g>
	<path d="M51.242,51.242c-6.359,0-11.532,5.174-11.532,11.532v7.345c-2.679,0.954-4.613,3.49-4.613,6.493
		c0,3.816,3.104,6.921,6.92,6.921h3.113c0.657,1.852,1.692,3.521,3.021,4.916c-7.427,1.447-13.055,7.997-13.055,15.842v9.226
		c0,1.272,1.033,2.306,2.307,2.306H78.92c1.271,0,2.306-1.033,2.306-2.306v-9.226c0-7.845-5.628-14.395-13.054-15.842
		c1.328-1.396,2.363-3.064,3.021-4.916h3.113c3.814,0,6.919-3.104,6.919-6.921c0-3.003-1.935-5.539-4.612-6.493v-7.345
		c0-6.358-5.174-11.532-11.533-11.532H51.242z M44.322,78.92h-2.306c-1.271,0-2.307-1.036-2.307-2.308
		c0-1.271,1.035-2.306,2.307-2.306h2.306V78.92z M76.613,104.291v6.919H39.71v-6.919c0-6.359,5.173-11.533,11.532-11.533H65.08
		C71.439,92.758,76.613,97.932,76.613,104.291z M48.936,78.92v-4.613h2.307c3.718,0,9.71-2.021,13.255-5.476
		c0.759,1.225,1.741,2.297,2.89,3.159v6.93c0,5.088-4.138,9.225-9.226,9.225S48.936,84.008,48.936,78.92z M74.307,74.307
		c1.271,0,2.307,1.035,2.307,2.306c0,1.271-1.035,2.308-2.307,2.308H72v-4.613H74.307z M72,62.774v6.523
		c-2.686-0.951-4.613-3.517-4.613-6.523c0-1.273-1.033-2.308-2.307-2.308s-2.307,1.034-2.307,2.308
		c0,3.208-6.979,6.919-11.531,6.919h-6.92v-6.919c0-3.815,3.105-6.919,6.92-6.919H65.08C68.896,55.855,72,58.959,72,62.774z"/>
	<path d="M97.371,0.5H74.307c-10.174,0-18.451,8.278-18.451,18.452v13.839H28.178c-3.815,0-6.92,3.104-6.92,6.919v96.87
		c0,3.815,3.104,6.92,6.92,6.92h59.967c3.815,0,6.92-3.104,6.92-6.92V39.71c0-3.815-3.104-6.919-6.92-6.919H60.468V18.952
		c0-7.634,6.206-13.84,13.839-13.84h4.613c11.443,0,20.758,9.313,20.758,20.759v36.903c0,6.358,5.172,11.532,11.531,11.532
		s11.533-5.174,11.533-11.532V25.871C122.742,11.883,111.359,0.5,97.371,0.5z M88.145,37.404c1.271,0,2.307,1.034,2.307,2.306v96.87
		c0,1.271-1.035,2.308-2.307,2.308H28.178c-1.271,0-2.307-1.036-2.307-2.308V39.71c0-1.271,1.035-2.306,2.307-2.306h27.678v4.729
		h-7.286c-1.256,0-2.273,1.018-2.273,2.273c0,1.255,1.018,2.272,2.273,2.272h19.184c1.255,0,2.272-1.018,2.272-2.272
		c0-1.256-1.018-2.273-2.272-2.273h-7.285v-4.729H88.145z M118.129,62.774c0,3.815-3.105,6.919-6.92,6.919s-6.92-3.104-6.92-6.919
		V25.871c0-8.57-4.27-16.164-10.798-20.759h3.88c11.443,0,20.758,9.313,20.758,20.759V62.774z"/>
	<path d="M55.889,120.436H37.37c-1.256,0-2.273,1.018-2.273,2.273c0,1.255,1.018,2.272,2.273,2.272h18.519
		c1.255,0,2.272-1.018,2.272-2.272C58.161,121.453,57.144,120.436,55.889,120.436z"/>
	<path d="M55.889,129.695H37.37c-1.256,0-2.273,1.018-2.273,2.273c0,1.255,1.018,2.272,2.273,2.272h18.519
		c1.255,0,2.272-1.018,2.272-2.272C58.161,130.713,57.144,129.695,55.889,129.695z"/>
	<path d="M78.953,129.695H65.047c-1.256,0-2.273,1.018-2.273,2.273c0,1.255,1.018,2.272,2.273,2.272h13.906
		c1.255,0,2.272-1.018,2.272-2.272C81.226,130.713,80.208,129.695,78.953,129.695z"/>
</g>
</svg>
